X:2410
T:Yn Mac Stroiltagh
T:(Arrane y Phelican) 
C:Mr W.Shimmin,(porter) aged 60, Ramsey, 1910.
C:Traditional
O:Isle of Man
Z:Note by P.W.Cain for A.W.Moore
B:Kiaull Vannin #410 
M:4/4 
L:1/4 
Q:140 
K:D 
B/A/|G2 FE|F2 AF|EB, CD|E3 F|GA Bd|c2 BA|AA dc|B3 F| 
GG A=c|B2 AF|GA B=c|d3 B/=c/|BB AA|=FG A^F|EB, CD|E3|| 

